icons/file-added-16.svg

<svg width="16" height="16" viewBox="0 0 16 16" fill="none" xmlns="http://www.w3.org/2000/svg">
<path fill-rule="evenodd" clip-rule="evenodd" d="M3.75 1.5C3.61193 1.5 3.5 1.61193 3.5 1.75V14.25C3.5 14.3881 3.61193 14.5 3.75 14.5H13.25C13.3881 14.5 13.5 14.3881 13.5 14.25V4.66421C13.5 4.59791 13.4737 4.53432 13.4268 4.48744L10.5126 1.57322C10.4657 1.52634 10.4021 1.5 10.3358 1.5H3.75ZM2 1.75C2 0.783502 2.7835 0 3.75 0H10.3358C10.7999 0 11.245 0.184374 11.5732 0.512563L14.4874 3.42678C14.8156 3.75497 15 4.20008 15 4.66421V14.25C15 15.2165 14.2165 16 13.25 16H3.75C2.7835 16 2 15.2165 2 14.25V1.75ZM8.22999 5.25785C8.64419 5.25508 8.98222 5.58861 8.98499 6.00281L8.995 7.5H10.4922C10.9064 7.5 11.2422 7.83579 11.2422 8.25C11.2422 8.66421 10.9064 9 10.4922 9H9V10.5072C9 10.9214 8.66421 11.2572 8.25 11.2572C7.83579 11.2572 7.5 10.9214 7.5 10.5072V9.005L5.99782 9.01498C5.58361 9.01773 5.2456 8.68419 5.24285 8.26998C5.2401 7.85578 5.57365 7.51777 5.98785 7.51501L7.495 7.505L7.48502 6.01285C7.48225 5.59864 7.81578 5.26062 8.22999 5.25785Z" fill="#24292F"/>
</svg>

<svg xmlns="http://www.w3.org/2000/svg" width="16" height="16" viewBox="0 0 16 16"><path fill-rule="evenodd" d="M3.75 1.5a.25.25 0 00-.25.25v12.5c0 .138.112.25.25.25h9.5a.25.25 0 00.25-.25V4.664a.25.25 0 00-.073-.177l-2.914-2.914a.25.25 0 00-.177-.073H3.75zM2 1.75C2 .784 2.784 0 3.75 0h6.586c.464 0 .909.184 1.237.513l2.914 2.914c.329.328.513.773.513 1.237v9.586A1.75 1.75 0 0113.25 16h-9.5A1.75 1.75 0 012 14.25V1.75zm6.23 3.508a.75.75 0 01.755.745l.01 1.497h1.497a.75.75 0 010 1.5H9v1.507a.75.75 0 01-1.5 0V9.005l-1.502.01a.75.75 0 11-.01-1.5l1.507-.01-.01-1.492a.75.75 0 01.745-.755z"/></svg>
